packages/nextjs/public/season-2/invader-12.svg

<svg width="96" height="96" viewBox="0 0 96 96" fill="none" xmlns="http://www.w3.org/2000/svg">
<path d="M24.1074 83.962C40.0824 84.1307 56.0588 84.175 72.0345 84.0944L72.0672 95.9918L24.162 96L24.1074 83.962Z" fill="#4F46E4"/>
<path fill-rule="evenodd" clip-rule="evenodd" d="M36.0493 0.0397907C43.9785 0.0359439 52.0998 -0.0626652 60.0107 0.06572L59.847 11.8076L83.9913 11.9877L84.0827 24.0831L95.9236 24.0066L96 59.9296L84.0254 59.9392L83.934 84.1298L72.0345 84.0944L72.0372 60.0484L59.9548 60.0224L60.0326 71.9717L36.1257 71.9908L35.8815 59.9842L24.192 59.9515L24.1074 83.962L12.0769 84.1285L12.0032 59.9542L0 60.0211L0.0122788 24.0203L12.021 24.0681L12.1438 11.9509L36.0452 11.8922L36.0493 0.0397907ZM59.9685 36.0965L59.9794 47.9148L83.9804 48.0513L83.8467 36.0269L59.9685 36.0965ZM11.976 47.8916L36.0165 47.9912L35.9374 36.1306H11.9773L11.976 47.8916Z" fill="#4F46E4"/>
</svg>

<svg xmlns="http://www.w3.org/2000/svg" fill="none" viewBox="0 0 96 96"><g fill="#4f46e4" clip-path="url(#a)"><path d="M24.107 83.962q23.963.253 47.927.132l.033 11.898L24.162 96z"/><path fill-rule="evenodd" d="M36.05.04C43.978.036 52.1-.063 60.01.066l-.163 11.742 24.144.18.092 12.095 11.84-.076L96 59.93l-11.975.01-.091 24.19-11.9-.036.003-24.046-12.082-.026.078 11.95-23.907.019-.244-12.007-11.69-.032-.085 24.01-12.03.166-.074-24.174L0 60.021l.012-36 12.009.047.123-12.117 23.901-.059zm23.919 36.057.01 11.818 24.001.136-.133-12.024zM11.975 47.892l24.04.1-.079-11.861h-23.96z" clip-rule="evenodd"/></g><defs><clipPath id="a"><path fill="#fff" d="M0 0h96v96H0z"/></clipPath></defs></svg>
